X:19
T:Brian Boru's March
R:march
M:6/8
L:1/8
K:C
ed |: c3/2B/A Aed |c3/2B/A Adc |B3/2A/G Gdc |B3/2A/G Ged |c3/2B/A Aed |\
c3/2B/A A3 |Acd e2 d |1 c3/2B/A Aed :|2 c3/2B/A A2 G |
|:Acd e2 d |e2 d e3/2c/A | GAB d2 B |d2 B d3/2B/G |Acd e2 d |e2 d e3/2c/A |
A3/2c/d e2 d |1 c3/2B/A A2 G :|2 c3/2B/A A2 B|
|: c3/2B/A a2 a |c3/2B/A a2 a |B3/2A/G g2 g |B3/2A/G g2 B |c3/2B/A a2 a |
c3/2B/A a2 b |c'ba gfe |dcB A2 B :|
|: cde g2 e |g2 e g3/2e/c |GAB d2 B |d2 B d3/2B/G |cde g2 e |g2 e g3/2e/c |
Acd e2 d |1 c3/2B/A A2 B :|2 c3/2B/A A2 ||
